icon-themes/breeze_svg/cmd/32/zoompanning.svg

<svg viewBox="0 0 32 32" xmlns="http://www.w3.org/2000/svg"><path d="m16 4-3 6h6zm-6 9-6 3 6 3zm12 0v6l6-3zm-6 1a2 2 0 0 0 -2 2 2 2 0 0 0 2 2 2 2 0 0 0 2-2 2 2 0 0 0 -2-2zm-3 8 3 6 3-6z" fill="#4d4d4d"/></svg>

<svg xmlns="http://www.w3.org/2000/svg" viewBox="0 0 32 32">
 <path 
     style="fill:#4d4d4d" 
     d="M 16 4 L 13 10 L 19 10 L 16 4 z M 10 13 L 4 16 L 10 19 L 10 13 z M 22 13 L 22 19 L 28 16 L 22 13 z M 16 14 A 2 2 0 0 0 14 16 A 2 2 0 0 0 16 18 A 2 2 0 0 0 18 16 A 2 2 0 0 0 16 14 z M 13 22 L 16 28 L 19 22 L 13 22 z "
     />
</svg>
